!!!!SEGMENT: 024-1-Sm-003.krn
!!!COM: Chopin, Fryderyk
!!!OTL: No. 3. Mazurka. 
!!!OPS: Op. 24
!!!PTL: Quatre Mazurkas Pour Le Piano
!!!PPR: M. Schlesinger
!!!PPP: Paris
!!!NIFC-rismID: 1001066062
!!!NIFC-shelfmark: PL-Wbfc 6594/n
!!!OMD: Moderato con anima [quarter] = 126
**kern	**kern	**dynam
*part1	*part1	*part1
*staff2	*staff1	*
*clefF4	*clefG2	*
*>[I,A,A1,A,A2,B,B1,B,B2,C]	*>[I,A,A1,A,A2,B,B1,B,B2,C]	*
*k[b-e-a-d-]	*k[b-e-a-d-]	*
*A-:	*A-:	*
*M3/4	*M3/4	*
*MM126	*MM126	*
*>I	*	*
4r	4a-^<	.
=1!|:	=1!|:	=1!|:
*>A	*	*
*ped	*	*
4EE-'<	(>8.gL	>
.	16fJk	]
4d- 4G 4E-	4.e-	.
*Xped	*	*
4d- 4G 4E-	.	.
.	8dd-	.
=2	=2	=2
*ped	*	*
4AA-'<	8ccL	.
.	(8a-J	.
.	8qa-/	.
4c 4A- 4E-	4.ff)	>
*Xped	*	*
4c 4A- 4E-	.	.
.	8ee-)	]
=3	=3	=3
*^	*	*
(>8.B-\L	2d- 2E-	(>8.gL	>
16A-Jk	.	16fJk	]
4G\)	.	4e-	.
4ryy	4E-	4dd-	>
=4	=4	=4	=4
*ped	*	*	*
4AA-'<	4ryy	8cc/L	.
.	.	8b-J	]
2c 2A-	(>4E-	4.a-^<	.
*Xped	*	*	*
.	4En)	.	.
.	.	8g)	.
*v	*v	*	*
!!LO:LB:g=original
=5	=5	=5
*ped	*	*
4DD-'<	8f'L	.
.	16r	.
.	16a-Jk	.
!	!	!LO:HP:a
4d- 4A- 4F	(<12a-L	>
.	12b-	.
.	12a-J)	]
*Xped	*	*
4r	(<8gL	.
.	8fJ)	.
=6	=6	=6
*ped	*	*
4EE-'<	8e-/L	.
.	16r	.
.	(>16ccJk	.
4a-:;> 4c: 4E-:	4.aa-^<;>)	fz
*Xped	*	*
4r	.	.
.	(>8a-	.
=7	=7	=7
*^	*	*
(>8.B-\L	2d- 2E-	8.gL	p>
16A-Jk	.	16fJk	]
4G\)	.	4e-	.
4ryy	4E-	4dd-	>
=8	=8	=8	=8
*ped	*	*	*
4AA-'<	4ryy	8ccL	]
.	.	8b-J	.
2c 2A-	(>4E-	4.a-^<	.
*Xped	*	*	*
.	4En)	.	.
.	.	8gn)	.
*v	*v	*	*
=9	=9	=9
*ped	*	*
4DD-	8f'<L	.
.	16r	.
.	(<16a-Jk	.
!	!	!LO:HP:a
!	!LO:TX:t=P:problem:cyfrowe oznaczenie trioli na dole	!
4d- 4A- 4F	12a-L	>
.	12b-	.
.	12a-J)	]
*Xped	*	*
4r	(<8gL	.
.	8fJ)	.
!!LO:LB:g=original
=10	=10	=10
*ped	*	*
4EE-'<	8e-'<L	.
.	16r	.
.	(>16ccJk	.
4a-:;> 4c: 4E-:	4ccc;>	fz
*Xped	*	*
!	!LO:TX:b:t=dolce	!
!LO:TX:t=P:problem:cyfrowe oznaczenie trioli na górze	!	!
4r	(>12bb-L	.
.	12aa-	.
.	12ffJ)	.
=11	=11	=11
*ped	*	*
4EE-'<	8ggL	>
.	8ff	.
4d- 4G 4E-	8ee-	.
.	8dd-	.
*Xped	*	*
4d- 4G 4E-	8b-	.
.	8fJ	]
=12	=12	=12
*>A1	*	*
*^	*	*
*ped	*	*	*
4rB	(<2AA-	8e-L)	.
.	.	16r	.
.	.	(<16ccJk	.
!	!	!LO:TX:a:B:t=1a.	!
4c 4E-)	.	4a-)	.
*Xped	*	*	*
4r	4r	(<8b-L	.
.	.	8a-J)	.
=13:|!	=13:|!	=13:|!	=13:|!
*>A2	*	*	*
*	*	*^	*
*ped	*	*	*	*
4rB	(<2AA-	8e-L	2ryy	.
.	.	16r	.	.
.	.	(<16ccJk	.	.
!	!	!LO:TX:a:B:t=2a	!	!
4c 4E-)	.	4a-)	.	.
*Xped	*	*	*	*
4ryy	4ryy	(>4cc	N[>4a-	.
*	*	*v	*v	*
*v	*v	*	*
=14!|:	=14!|:	=14!|:
*>B	*	*
!LO:TX:t=legato	!	!
4a->N] 4f> 4Bn	4dd/)	.
8g> 8e-> 8c>	(>8ee-/L	.
8r>e	8dd-J	.
(>4g-> 4e-> 4An	4cc/	.
=15	=15	=15
8f> 8d-> 8B-)	8dd-/L	.
8r>e	8ccJ	.
(<4f-> 4d-> 4G	4b-/	.
4e-> 4c> 4A-	4cc/)	.
!!LO:LB:g=original
=16	=16	=16
4a-> 4f> 4B)	(>4ddn/	.
8g> 8e-> 8c>	8ee-/L	.
8r>e	8dd-J	.
(>4g-> 4e-> 4A	4cc/	.
=17	=17	=17
8f> 8d-> 8B-)	8dd-/L	.
8r>e	8ccJ	.
(<4f-> 4d-> 4G	4b-/	.
4e-> 4c> 4A-	4cc/)	.
=18	=18	=18
4f-> 4d-> 4G	(>4b-/	.
8e-> 8c> 8A-)	8cc/L	.
8r	8b-J	.
(>4dn> 4c-> 4F	4a-	.
=19	=19	=19
8d-X 8B- 8G)	8b-L	.
8r	8a-J	.
(>4c 4B- 4En	4g	.
4c 4A- 4F	4a-)	.
=20	=20	=20
4c 4B- 4En	(>4g	.
8c 8A- 8F)	8a-L	.
8r	8gJ	.
4Bn 4G 4D-	4f	.
=21	=21	=21
*	*^	*
*ped	*	*	*
[>2.en [>2.G [<2.C	8enL	4ryy	.
.	8gJ)	.	.
.	4r	[<2c	.
.	(>[>4cc	.	.
!!LO:PB:g=original
=22	=22	=22	=22
!	!	!LO:TX:t=P:problem:brak zakończenia ligatury przy 2.c	!
2.en_> 2.G_> 2.C_<	2cc]	2.c_<	.
.	4cc	.	.
=23	=23	=23	=23
2.enX_> 2.G_> 2.C_<	2cc	2.c_<	.
.	4cc	.	.
=24	=24	=24	=24
2.enX] 2.G] 2.C]	[>2.cc	2.c]	.
*	*v	*v	*
=25	=25	=25
2.r;>	2cc;>])	.
.	(>\8b-L	.
.	8a-J	.
=26	=26	=26
*^	*	*
(>\8.B-L	2d- 2E-	8.gL	>
16A-Jk	.	16fJk	]
4G\)	.	4.e-	.
4E-\	4ryy	.	.
.	.	8dd-	.
*v	*v	*	*
=27	=27	=27
*ped	*	*
4AA-'<	8cc/L	.
.	8a-J	.
.	8qa-/	.
4c 4A- 4E-	4.ff	>
*Xped	*	*
4c 4A- 4E-	.	.
.	8ee-	]
=28	=28	=28
*^	*	*
(8.B-\L	2d- 2E-	8.gL	>
16A-Jk	.	16fJk	]
4G\)	.	4e-	.
4E-	4ryy	4dd-	>
=29	=29	=29	=29
*ped	*	*	*
4AA-'	4ryy	8ccL	]
.	.	8b-J	.
2c 2A-	(>4E-	4.a-^<	.
*Xped	*	*	*
.	4En)	.	.
.	.	8g	.
*v	*v	*	*
!!LO:LB:g=original
=30	=30	=30
*ped	*	*
!	!LO:TX:t=P:problem:zakończenie łuku pod nutami	!
4DD-'<	8f'<L)	.
.	16r	.
.	(<16a-Jk	.
!	!	!LO:HP:a
!	!LO:TX:t=P:problem:cyfrowe oznaczenie trioli na dole	!
4d- 4A- 4F	12a-L	>
.	12b-	.
.	12a-J	]
*Xped	*	*
4r	8gL	.
.	8fJ	.
=31	=31	=31
*ped	*	*
4EE-'<	8e-L)	.
.	16r	.
.	(<16ccJk	.
4a-:;> 4c: 4E-:	4.aa-;>)	fz
*Xped	*	*
4r	.	.
.	(>8a-	p
=32	=32	=32
*^	*	*
(>8.B-\L	2d- 2E-	8.gL	>
16A-Jk	.	16fJk	.
4G\)	.	4e-	]
4E-	4ryy	4dd-	>
=33	=33	=33	=33
*ped	*	*	*
4AA-'<	4ryy	8ccL	]
.	.	8b-J	.
2c 2A-	(>4E-	4.a-	>
*Xped	*	*	*
.	4En)	.	.
.	.	8g	]
*v	*v	*	*
=34	=34	=34
*ped	*	*
4DD-'<	8f`>L)	.
.	16r	.
.	(<16a-Jk	.
!	!	!LO:HP:a
!	!LO:TX:t=P:problem:cyfrowe oznaczenie trioli pod nutami	!
4d- 4A- 4F	12a-L	>
.	12b-	.
.	12a-J	]
*Xped	*	*
4r	8gL	.
.	8fJ	.
!!LO:LB:g=original
=35	=35	=35
*ped	*	*
4EE-'<	8e-L)	.
.	16r	.
.	16ccJk	.
4a-:;> 4c: 4E-:	4ccc;>	fz
!	!LO:TX:b:t=dolce	!
!LO:TX:t=P:problem:cyfrowe oznaczenie trioli na górze	!	!
4r	(12bb-L	.
.	12aa-	.
.	12ffJ)	>
=36	=36	=36
*ped	*	*
4EE-'<	(>8ggL	.
.	8ff	.
4d- 4G 4E-	8ee-	.
.	8dd-	.
*Xped	*	*
4d- 4G 4E-	8b-	.
.	8fJ)	]
=37	=37	=37
*>B1	*	*
*^	*	*
*ped	*	*	*
4rB	(<2AA-	8e-L	.
.	.	16r	.
.	.	(<16ccJk	.
!	!	!LO:TX:a:B:t=1a.	!
4c 4E-)	.	4a-)	.
*Xped	*	*	*
N(>4a->	4ryy	4cc/	.
*v	*v	*	*
=38:|!	=38:|!	=38:|!
*>B2	*	*
!	!LO:TX:a:B:t=2a.	!
*ped	*	*
4AA-	8e-'>LN)	.
!	!LO:TX:b:t=dolciss	!
.	(>8cc	.
4c 4E-	8ccc	.
.	8bb-	.
*Xped	*	*
4c 4E-	8aa-	.
.	8ffJ	.
=39	=39	=39
*ped	*	*
4AA-	8ggL	.
.	8ff	.
4d- 4E-	8ee-	.
.	8dd-	.
*Xped	*	*
4d- 4E-	8b-	.
.	8fJ	.
!!LO:LB:g=original
=40	=40	=40
*>C	*	*
*ped	*	*
4AA-	8e-L	.
.	8cc	.
4c 4E-	8ccc	.
.	8bb-	.
*Xped	*	*
4c 4E-	8aa-	.
.	8ffJ	.
=41	=41	=41
*ped	*	*
4AA-	8ee-L	.
.	8cc	.
!	!LO:TX:b:t=per-den-do-si:dur=19es:ext=ud:problem:text with extention lines	!
4e- 4E-	8ccc	.
.	8bb-	.
4e- 4E-	8aa-	.
.	8ffJ	.
=42	=42	=42
4AA-	8ee-L	.
.	8cc	.
4e- 4E-	8ccc	.
.	8bb-	.
4e- 4E-	8aa-	.
.	8ffJ	.
=43	=43	=43
4AA-	8ee-L	.
.	8cc	.
4e- 4E-	8ccc	.
.	8bb-	.
4r	8aa-	.
.	8ffJ	.
=44	=44	=44
2.r	8ee-L	.
.	8cc	.
.	8gg	.
.	8ff	.
.	8ee-	.
.	8a-J	.
=45	=45	=45
2.r;>	2.cc;>)	.
!	!LO:TX:a:t=fine	!
!!LO:PB:g=original
==	==	==
*-	*-	*-
!!title: @{OTL}; @{OPS} @{ONM} publisher: @{PPR}
!!!RDF**kern: > = above
!!!RDF**kern: < = below
!!!RDF**kern: N = linked
!!!ENC: Tomasz Sierawski
!!!END: 2019-01-03
!!!EED: Zofia Niedbalska
!!!EST: revision finished 2019-01-05
!!!rism-genre: Mazurka
!!!rism-key: A-flat major
!!!rism-opus: op. 24, no. 3
!!!rism-title: Mazurka in A-flat major op. 24, no. 3
!!!rism-permalink: https://opac.rism.info/search?id=1001066062&View=rism
!!!rism-773a-OPR: 1001066057
!!!rism-parent-permalink: https://opac.rism.info/search?id=1001066057&View=rism
